X: 3027
T: The RED RED ROSE
Q:"Strathspey."
R: Strathspey.
%R:strathspey
B: James Kerr "Merry Melodies" v.3 p.6 #27
Z: 2016 John Chambers <jc:trillian.mit.edu>
N: The 2nd strain has initial repeat but no final repeat; fixed.
M: C
L: 1/8
K: D
ud |\
vD<uD vE>uF vd>vcuB>uA | B>AB<d e2 (d/e/f) |\
D<D E>F d>cB>A | B>A B<c d3 ::\
A |\
d>fe>d (B<d) A>F | A>Ag>f (f<e) e>a |\
f>af>d (B<d) A>F | A<A B>c d3 :|

%%sep 1 1 500
%%sep 1 1 500

